; generated by PrusaSlicer 2.3.0+win64 on 2021-09-23 at 11:56:14 UTC

; 

; external perimeters extrusion width = 0.60mm
; perimeters extrusion width = 0.45mm
; infill extrusion width = 0.45mm
; solid infill extrusion width = 0.45mm
; top infill extrusion width = 0.40mm
; support material extrusion width = 0.35mm
; first layer extrusion width = 0.42mm

M201 X1000 Y1000 Z200 E5000 ; sets maximum accelerations, mm/sec^2
M203 X200 Y200 Z8 E60 ; sets maximum feedrates, mm/sec
M204 P1250 R1250 T1250 ; sets acceleration (P, T) and retract acceleration (R), mm/sec^2
M205 X8.00 Y8.00 Z0.40 E5.00 ; sets the jerk limits, mm/sec
M205 S0 T0 ; sets the minimum extruding and travel feed rate, mm/sec
M107 ; disable fan
;TYPE:Custom
G90 ; use absolute coordinates
M83 ; extruder relative mode
M204 S1250 T1250
M104 S215 ; set extruder temp
M140 S60 ; set bed temp
G28 ; home all
G1 Y0 Z1 F100 ; move print head up
M190 S60 ; wait for bed temp
M109 S215 ; wait for extruder temp
G92 E0
G1 E38 F1000; deretract filament
G92 E0
G1 X60 Z0 E9 ; intro line
G1 X100 E12.5 ; intro line
G92 E0
G21 ; set units to millimeters
G90 ; use absolute coordinates
M83 ; use relative distances for extrusion
; Filament gcode
;LAYER_CHANGE
;Z:0.2
;HEIGHT:0.2
;BEFORE_LAYER_CHANGE
;0.2
G1 E-6.00000 F2400.000 ; retract
G1 Z0.075 F10800.000 ; lift Z
G1 Z0.200 ; move to next layer (0)
;AFTER_LAYER_CHANGE
;0.2
G1 Z0.275 ; lift Z
G1 X84.946 Y81.897 ; move to first brim point
G1 Z0.200 ; restore layer Z
G1 E6.00000 F3000.000 ; unretract
M204 S1250 ; adjust acceleration
;TYPE:Skirt
;WIDTH:0.42
G1 F1800.000
G1 X94.448 Y76.281 E0.34606 ; brim
G1 X103.740 Y74.464 E0.29687 ; brim
G1 X105.235 Y74.444 E0.04687 ; brim
G1 X115.393 Y76.224 E0.32338 ; brim
G1 X123.662 Y80.798 E0.29628 ; brim
G1 X124.817 Y81.740 E0.04673 ; brim
G1 X131.224 Y89.243 E0.30937 ; brim
G1 X134.832 Y98.401 E0.30862 ; brim
G1 X135.131 Y99.886 E0.04749 ; brim
G1 X135.290 Y109.046 E0.28725 ; brim
G1 X135.065 Y110.492 E0.04588 ; brim
G1 X131.976 Y119.437 E0.29673 ; brim
G1 X125.218 Y127.960 E0.34106 ; brim
G1 X115.851 Y133.604 E0.34287 ; brim
G1 X105.059 Y135.594 E0.34410 ; brim
G1 X94.608 Y133.777 E0.33260 ; brim
G1 X86.338 Y129.202 E0.29633 ; brim
G1 X85.181 Y128.258 E0.04680 ; brim
G1 X78.775 Y120.755 E0.30935 ; brim
G1 X75.148 Y111.549 E0.31024 ; brim
G1 X74.869 Y110.076 E0.04702 ; brim
G1 X74.709 Y100.941 E0.28645 ; brim
G1 X74.938 Y99.500 E0.04576 ; brim
G1 X78.025 Y90.561 E0.29652 ; brim
G1 X84.908 Y81.944 E0.34580 ; brim
G1 X85.203 Y82.179 F10800.000 ; move to first brim point
G1 F1800.000
G1 X94.552 Y76.645 E0.34063 ; brim
G1 X103.796 Y74.837 E0.29533 ; brim
G1 X105.187 Y74.818 E0.04363 ; brim
G1 X115.238 Y76.569 E0.31989 ; brim
G1 X123.465 Y81.120 E0.29476 ; brim
G1 X124.541 Y81.998 E0.04356 ; brim
G1 X130.885 Y89.410 E0.30591 ; brim
G1 X134.475 Y98.523 E0.30711 ; brim
G1 X134.754 Y99.909 E0.04432 ; brim
G1 X134.913 Y109.036 E0.28621 ; brim
G1 X134.703 Y110.384 E0.04278 ; brim
G1 X131.630 Y119.283 E0.29520 ; brim
G1 X124.944 Y127.699 E0.33701 ; brim
G1 X115.686 Y133.263 E0.33866 ; brim
G1 X105.090 Y135.217 E0.33784 ; brim
G1 X94.763 Y133.432 E0.32861 ; brim
G1 X86.535 Y128.880 E0.29481 ; brim
G1 X85.457 Y128.001 E0.04362 ; brim
G1 X79.082 Y120.534 E0.30783 ; brim
G1 X75.506 Y111.428 E0.30675 ; brim
G1 X75.246 Y110.053 E0.04387 ; brim
G1 X75.087 Y100.951 E0.28543 ; brim
G1 X75.300 Y99.607 E0.04267 ; brim
G1 X78.371 Y90.714 E0.29499 ; brim
G1 X85.165 Y82.226 E0.34091 ; brim
G1 X85.440 Y82.466 F10800.000 ; move to first brim point
G1 F1800.000
G1 X94.656 Y77.009 E0.33580 ; brim
G1 X103.851 Y75.211 E0.29379 ; brim
G1 X105.140 Y75.193 E0.04041 ; brim
G1 X115.084 Y76.914 E0.31640 ; brim
G1 X123.267 Y81.441 E0.29324 ; brim
G1 X124.266 Y82.256 E0.04040 ; brim
G1 X130.578 Y89.632 E0.30439 ; brim
G1 X134.118 Y98.646 E0.30365 ; brim
G1 X134.377 Y99.933 E0.04117 ; brim
G1 X134.536 Y109.027 E0.28517 ; brim
G1 X134.341 Y110.277 E0.03968 ; brim
G1 X131.284 Y119.130 E0.29366 ; brim
G1 X124.720 Y127.394 E0.33089 ; brim
G1 X115.584 Y132.899 E0.33444 ; brim
G1 X105.121 Y134.839 E0.33366 ; brim
G1 X94.917 Y133.086 E0.32460 ; brim
G1 X86.733 Y128.558 E0.29328 ; brim
G1 X85.733 Y127.743 E0.04046 ; brim
G1 X79.421 Y120.367 E0.30436 ; brim
G1 X75.863 Y111.307 E0.30521 ; brim
G1 X75.622 Y110.031 E0.04071 ; brim
G1 X75.464 Y100.961 E0.28442 ; brim
G1 X75.661 Y99.715 E0.03957 ; brim
G1 X78.717 Y90.868 E0.29345 ; brim
G1 X85.403 Y82.513 E0.33552 ; brim
G1 X85.697 Y82.749 F10800.000 ; move to first brim point
G1 F1800.000
G1 X94.760 Y77.373 E0.33039 ; brim
G1 X103.907 Y75.584 E0.29225 ; brim
G1 X105.094 Y75.567 E0.03720 ; brim
G1 X114.929 Y77.260 E0.31291 ; brim
G1 X123.070 Y81.763 E0.29172 ; brim
G1 X123.991 Y82.514 E0.03725 ; brim
G1 X130.239 Y89.799 E0.30092 ; brim
G1 X133.761 Y98.768 E0.30214 ; brim
G1 X134.000 Y99.957 E0.03801 ; brim
G1 X134.159 Y109.017 E0.28413 ; brim
G1 X133.980 Y110.170 E0.03658 ; brim
G1 X130.938 Y118.977 E0.29213 ; brim
G1 X124.446 Y127.132 E0.32684 ; brim
G1 X115.482 Y132.534 E0.32817 ; brim
G1 X105.151 Y134.462 E0.32949 ; brim
G1 X95.072 Y132.741 E0.32059 ; brim
G1 X86.930 Y128.237 E0.29175 ; brim
G1 X86.008 Y127.485 E0.03730 ; brim
G1 X79.729 Y120.146 E0.30284 ; brim
G1 X76.221 Y111.186 E0.30170 ; brim
G1 X75.999 Y110.008 E0.03757 ; brim
G1 X75.841 Y100.971 E0.28341 ; brim
G1 X76.023 Y99.822 E0.03647 ; brim
G1 X79.062 Y91.022 E0.29191 ; brim
G1 X85.659 Y82.796 E0.33062 ; brim
G1 X85.935 Y83.036 F10800.000 ; move to first brim point
G1 F1800.000
G1 X94.864 Y77.737 E0.32555 ; brim
G1 X103.963 Y75.957 E0.29070 ; brim
G1 X105.047 Y75.942 E0.03399 ; brim
G1 X114.774 Y77.605 E0.30941 ; brim
G1 X122.873 Y82.085 E0.29019 ; brim
G1 X123.715 Y82.772 E0.03409 ; brim
G1 X129.932 Y90.020 E0.29939 ; brim
G1 X133.404 Y98.890 E0.29866 ; brim
G1 X133.624 Y99.980 E0.03487 ; brim
G1 X133.781 Y109.008 E0.28308 ; brim
G1 X133.618 Y110.063 E0.03349 ; brim
G1 X130.592 Y118.823 E0.29059 ; brim
G1 X124.222 Y126.827 E0.32073 ; brim
G1 X115.378 Y132.170 E0.32397 ; brim
G1 X105.181 Y134.085 E0.32532 ; brim
G1 X95.227 Y132.396 E0.31657 ; brim
G1 X87.127 Y127.915 E0.29022 ; brim
G1 X86.284 Y127.226 E0.03414 ; brim
G1 X80.068 Y119.979 E0.29936 ; brim
G1 X76.578 Y111.065 E0.30015 ; brim
G1 X76.376 Y109.986 E0.03442 ; brim
G1 X76.219 Y100.981 E0.28240 ; brim
G1 X76.385 Y99.929 E0.03337 ; brim
G1 X79.408 Y91.176 E0.29038 ; brim
G1 X85.897 Y83.082 E0.32525 ; brim
G1 X86.191 Y83.319 F10800.000 ; move to first brim point
G1 F1800.000
G1 X94.968 Y78.101 E0.32015 ; brim
G1 X104.019 Y76.331 E0.28916 ; brim
G1 X105.001 Y76.317 E0.03080 ; brim
G1 X114.620 Y77.950 E0.30590 ; brim
G1 X122.675 Y82.407 E0.28866 ; brim
G1 X123.440 Y83.031 E0.03095 ; brim
G1 X129.592 Y90.187 E0.29590 ; brim
G1 X133.047 Y99.012 E0.29715 ; brim
G1 X133.247 Y100.004 E0.03172 ; brim
G1 X133.404 Y108.998 E0.28204 ; brim
G1 X133.256 Y109.956 E0.03039 ; brim
G1 X130.246 Y118.669 E0.28905 ; brim
G1 X123.949 Y126.566 E0.31668 ; brim
G1 X115.213 Y131.830 E0.31979 ; brim
G1 X105.211 Y133.707 E0.31909 ; brim
G1 X95.381 Y132.050 E0.31255 ; brim
G1 X87.325 Y127.593 E0.28869 ; brim
G1 X86.559 Y126.968 E0.03099 ; brim
G1 X80.375 Y119.758 E0.29783 ; brim
G1 X76.936 Y110.944 E0.29663 ; brim
G1 X76.753 Y109.964 E0.03128 ; brim
G1 X76.596 Y100.991 E0.28139 ; brim
G1 X76.747 Y100.037 E0.03027 ; brim
G1 X79.754 Y91.330 E0.28883 ; brim
G1 X86.154 Y83.365 E0.32034 ; brim
G1 X86.429 Y83.605 F10800.000 ; move to first brim point
G1 F1800.000
G1 X95.072 Y78.464 E0.31530 ; brim
G1 X104.075 Y76.704 E0.28761 ; brim
G1 X104.955 Y76.691 E0.02761 ; brim
G1 X114.465 Y78.296 E0.30239 ; brim
G1 X122.478 Y82.729 E0.28712 ; brim
G1 X123.165 Y83.289 E0.02780 ; brim
G1 X129.285 Y90.409 E0.29438 ; brim
G1 X132.690 Y99.134 E0.29366 ; brim
G1 X132.870 Y100.028 E0.02859 ; brim
G1 X133.027 Y108.988 E0.28100 ; brim
G1 X132.894 Y109.849 E0.02729 ; brim
G1 X129.900 Y118.516 E0.28750 ; brim
G1 X123.675 Y126.304 E0.31262 ; brim
G1 X115.110 Y131.466 E0.31355 ; brim
G1 X105.240 Y133.330 E0.31493 ; brim
G1 X95.536 Y131.705 E0.30851 ; brim
G1 X87.522 Y127.271 E0.28715 ; brim
G1 X86.834 Y126.710 E0.02785 ; brim
G1 X80.715 Y119.591 E0.29434 ; brim
G1 X77.294 Y110.824 E0.29507 ; brim
G1 X77.129 Y109.941 E0.02815 ; brim
G1 X76.973 Y101.000 E0.28038 ; brim
G1 X77.109 Y100.144 E0.02718 ; brim
G1 X80.100 Y91.483 E0.28729 ; brim
G1 X86.392 Y83.652 E0.31499 ; brim
G1 X86.652 Y83.912 F10800.000 ; move to first brim point
G1 F1800.000
G1 X95.177 Y78.828 E0.31121 ; brim
G1 X104.131 Y77.077 E0.28606 ; brim
G1 X104.910 Y77.066 E0.02444 ; brim
G1 X114.311 Y78.641 E0.29887 ; brim
G1 X122.281 Y83.050 E0.28558 ; brim
G1 X122.890 Y83.548 E0.02467 ; brim
G1 X128.946 Y90.576 E0.29087 ; brim
G1 X132.332 Y99.256 E0.29215 ; brim
G1 X132.493 Y100.052 E0.02545 ; brim
G1 X132.649 Y108.979 E0.27995 ; brim
G1 X132.532 Y109.742 E0.02419 ; brim
G1 X129.554 Y118.362 E0.28596 ; brim
G1 X123.451 Y125.999 E0.30651 ; brim
G1 X115.006 Y131.101 E0.30938 ; brim
G1 X105.269 Y132.953 E0.31078 ; brim
G1 X95.690 Y131.359 E0.30447 ; brim
G1 X87.719 Y126.950 E0.28560 ; brim
G1 X87.109 Y126.451 E0.02470 ; brim
G1 X81.022 Y119.369 E0.29281 ; brim
G1 X77.652 Y110.704 E0.29152 ; brim
G1 X77.506 Y109.919 E0.02502 ; brim
G1 X77.351 Y101.010 E0.27938 ; brim
G1 X77.471 Y100.252 E0.02408 ; brim
G1 X80.446 Y91.637 E0.28575 ; brim
G1 X86.614 Y83.958 E0.30883 ; brim
G1 X86.908 Y84.195 F10800.000 ; move to first brim point
G1 F1800.000
G1 X95.281 Y79.192 E0.30583 ; brim
G1 X104.186 Y77.451 E0.28451 ; brim
G1 X104.865 Y77.441 E0.02127 ; brim
G1 X114.156 Y78.987 E0.29534 ; brim
G1 X122.083 Y83.372 E0.28404 ; brim
G1 X122.615 Y83.806 E0.02153 ; brim
G1 X128.639 Y90.798 E0.28934 ; brim
G1 X131.975 Y99.378 E0.28865 ; brim
G1 X132.117 Y100.076 E0.02232 ; brim
G1 X132.272 Y108.970 E0.27891 ; brim
G1 X132.170 Y109.635 E0.02110 ; brim
G1 X129.209 Y118.208 E0.28440 ; brim
G1 X123.178 Y125.737 E0.30244 ; brim
G1 X114.840 Y130.761 E0.30523 ; brim
G1 X105.297 Y132.575 E0.30457 ; brim
G1 X95.844 Y131.013 E0.30042 ; brim
G1 X87.917 Y126.628 E0.28406 ; brim
G1 X87.384 Y126.193 E0.02157 ; brim
G1 X81.361 Y119.203 E0.28930 ; brim
G1 X78.010 Y110.584 E0.28995 ; brim
G1 X77.883 Y109.897 E0.02189 ; brim
G1 X77.728 Y101.020 E0.27838 ; brim
G1 X77.832 Y100.359 E0.02098 ; brim
G1 X80.791 Y91.791 E0.28421 ; brim
G1 X86.870 Y84.241 E0.30391 ; brim
G1 X87.146 Y84.481 F10800.000 ; move to first brim point
G1 F1800.000
G1 X95.386 Y79.556 E0.30097 ; brim
G1 X104.242 Y77.824 E0.28295 ; brim
G1 X104.820 Y77.816 E0.01812 ; brim
G1 X114.002 Y79.333 E0.29180 ; brim
G1 X121.886 Y83.694 E0.28249 ; brim
G1 X122.341 Y84.065 E0.01841 ; brim
G1 X128.299 Y90.964 E0.28583 ; brim
G1 X131.618 Y99.500 E0.28713 ; brim
G1 X131.740 Y100.099 E0.01920 ; brim
G1 X131.895 Y108.960 E0.27787 ; brim
G1 X131.808 Y109.528 E0.01800 ; brim
G1 X128.863 Y118.054 E0.28285 ; brim
G1 X122.905 Y125.475 E0.29837 ; brim
G1 X114.737 Y130.397 E0.29903 ; brim
G1 X105.325 Y132.198 E0.30043 ; brim
G1 X95.998 Y130.668 E0.29636 ; brim
G1 X88.114 Y126.306 E0.28250 ; brim
G1 X87.659 Y125.934 E0.01843 ; brim
G1 X81.668 Y118.981 E0.28777 ; brim
G1 X78.368 Y110.464 E0.28639 ; brim
G1 X78.260 Y109.875 E0.01878 ; brim
G1 X78.105 Y101.030 E0.27738 ; brim
G1 X78.194 Y100.467 E0.01788 ; brim
G1 X81.137 Y91.945 E0.28266 ; brim
G1 X87.109 Y84.527 E0.29858 ; brim
G1 X87.402 Y84.764 F10800.000 ; move to first brim point
G1 F1800.000
G1 X95.490 Y79.920 E0.29560 ; brim
G1 X104.298 Y78.197 E0.28140 ; brim
G1 X104.776 Y78.190 E0.01498 ; brim
G1 X113.848 Y79.678 E0.28826 ; brim
G1 X121.689 Y84.016 E0.28094 ; brim
G1 X122.066 Y84.324 E0.01529 ; brim
G1 X127.993 Y91.186 E0.28430 ; brim
G1 X131.261 Y99.621 E0.28362 ; brim
G1 X131.363 Y100.123 E0.01608 ; brim
G1 X131.517 Y108.951 E0.27682 ; brim
G1 X131.446 Y109.421 E0.01490 ; brim
G1 X128.517 Y117.901 E0.28129 ; brim
G1 X122.682 Y125.169 E0.29226 ; brim
G1 X114.632 Y130.033 E0.29489 ; brim
G1 X105.353 Y131.820 E0.29629 ; brim
G1 X96.152 Y130.322 E0.29228 ; brim
G1 X88.311 Y125.984 E0.28095 ; brim
G1 X87.933 Y125.675 E0.01531 ; brim
G1 X82.008 Y118.815 E0.28424 ; brim
G1 X78.726 Y110.345 E0.28480 ; brim
G1 X78.636 Y109.853 E0.01566 ; brim
G1 X78.483 Y101.040 E0.27639 ; brim
G1 X78.556 Y100.574 E0.01479 ; brim
G1 X81.483 Y92.099 E0.28111 ; brim
G1 X87.364 Y84.811 E0.29366 ; brim
G1 X87.641 Y85.050 F10800.000 ; move to first brim point
G1 F1800.000
G1 X95.595 Y80.283 E0.29073 ; brim
G1 X104.354 Y78.570 E0.27984 ; brim
G1 X104.731 Y78.565 E0.01184 ; brim
G1 X113.694 Y80.024 E0.28472 ; brim
G1 X121.491 Y84.337 E0.27938 ; brim
G1 X121.792 Y84.583 E0.01218 ; brim
G1 X127.653 Y91.353 E0.28076 ; brim
G1 X130.903 Y99.743 E0.28210 ; brim
G1 X130.987 Y100.148 E0.01297 ; brim
G1 X131.140 Y108.942 E0.27578 ; brim
G1 X131.084 Y109.314 E0.01180 ; brim
G1 X128.171 Y117.747 E0.27972 ; brim
G1 X122.409 Y124.907 E0.28818 ; brim
G1 X114.466 Y129.693 E0.29076 ; brim
G1 X105.380 Y131.443 E0.29012 ; brim
G1 X96.306 Y129.976 E0.28821 ; brim
G1 X88.509 Y125.663 E0.27939 ; brim
G1 X88.208 Y125.417 E0.01218 ; brim
G1 X82.315 Y118.593 E0.28271 ; brim
G1 X79.084 Y110.226 E0.28121 ; brim
G1 X79.013 Y109.832 E0.01256 ; brim
G1 X78.860 Y101.050 E0.27540 ; brim
G1 X78.918 Y100.681 E0.01169 ; brim
G1 X81.829 Y92.253 E0.27956 ; brim
G1 X87.604 Y85.096 E0.28834 ; brim
G1 X87.897 Y85.334 F10800.000 ; move to first brim point
G1 F1800.000
G1 X95.699 Y80.647 E0.28538 ; brim
G1 X104.409 Y78.944 E0.27828 ; brim
G1 X104.688 Y78.940 E0.00872 ; brim
G1 X113.540 Y80.370 E0.28117 ; brim
G1 X121.293 Y84.659 E0.27781 ; brim
G1 X121.517 Y84.842 E0.00906 ; brim
G1 X127.346 Y91.575 E0.27924 ; brim
G1 X130.546 Y99.864 E0.27859 ; brim
G1 X130.610 Y100.172 E0.00986 ; brim
G1 X130.763 Y108.933 E0.27473 ; brim
G1 X130.722 Y109.207 E0.00871 ; brim
G1 X127.826 Y117.592 E0.27814 ; brim
G1 X122.136 Y124.644 E0.28409 ; brim
G1 X114.362 Y129.329 E0.28460 ; brim
G1 X105.407 Y131.065 E0.28600 ; brim
G1 X96.460 Y129.630 E0.28412 ; brim
G1 X88.707 Y125.341 E0.27782 ; brim
G1 X88.483 Y125.158 E0.00907 ; brim
G1 X82.655 Y118.426 E0.27917 ; brim
G1 X79.443 Y110.107 E0.27960 ; brim
G1 X79.390 Y109.811 E0.00945 ; brim
G1 X79.237 Y101.059 E0.27443 ; brim
G1 X79.280 Y100.789 E0.00859 ; brim
G1 X82.174 Y92.408 E0.27801 ; brim
G1 X87.859 Y85.380 E0.28341 ; brim
G1 X88.136 Y85.619 F10800.000 ; move to first brim point
G1 F1800.000
G1 X95.804 Y81.011 E0.28050 ; brim
G1 X104.465 Y79.317 E0.27670 ; brim
G1 X104.644 Y79.315 E0.00561 ; brim
G1 X113.387 Y80.716 E0.27762 ; brim
G1 X121.096 Y84.980 E0.27624 ; brim
G1 X121.243 Y85.101 E0.00596 ; brim
G1 X127.006 Y91.742 E0.27570 ; brim
G1 X130.189 Y99.986 E0.27709 ; brim
G1 X130.233 Y100.197 E0.00676 ; brim
G1 X130.386 Y108.924 E0.27368 ; brim
G1 X130.359 Y109.101 E0.00561 ; brim
G1 X127.480 Y117.438 E0.27655 ; brim
G1 X121.864 Y124.381 E0.28000 ; brim
G1 X114.196 Y128.989 E0.28049 ; brim
G1 X105.434 Y130.687 E0.27985 ; brim
G1 X96.613 Y129.284 E0.28002 ; brim
G1 X88.904 Y125.020 E0.27624 ; brim
G1 X88.758 Y124.899 E0.00596 ; brim
G1 X82.961 Y118.204 E0.27764 ; brim
G1 X79.801 Y109.990 E0.27597 ; brim
G1 X79.767 Y109.790 E0.00636 ; brim
G1 X79.615 Y101.069 E0.27348 ; brim
G1 X79.642 Y100.896 E0.00549 ; brim
G1 X82.520 Y92.562 E0.27645 ; brim
G1 X88.098 Y85.665 E0.27811 ; brim
G1 X88.391 Y85.903 F10800.000 ; move to first brim point
G1 F1800.000
G1 X95.909 Y81.375 E0.27517 ; brim
G1 X104.520 Y79.691 E0.27512 ; brim
G1 X104.600 Y79.690 E0.00251 ; brim
G1 X113.233 Y81.062 E0.27407 ; brim
G1 X120.897 Y85.302 E0.27464 ; brim
G1 X120.968 Y85.360 E0.00286 ; brim
G1 X126.700 Y91.964 E0.27419 ; brim
G1 X129.832 Y100.108 E0.27358 ; brim
G1 X129.857 Y100.222 E0.00367 ; brim
G1 X130.008 Y108.916 E0.27263 ; brim
G1 X129.997 Y108.995 E0.00251 ; brim
G1 X127.134 Y117.284 E0.27494 ; brim
G1 X121.592 Y124.118 E0.27589 ; brim
G1 X114.091 Y128.625 E0.27437 ; brim
G1 X105.459 Y130.310 E0.27575 ; brim
G1 X96.767 Y128.938 E0.27592 ; brim
G1 X89.103 Y124.698 E0.27464 ; brim
G1 X89.032 Y124.640 E0.00286 ; brim
G1 X83.301 Y118.038 E0.27411 ; brim
G1 X80.160 Y109.873 E0.27430 ; brim
G1 X80.144 Y109.770 E0.00327 ; brim
