; generated by PrusaSlicer 2.3.0+win64 on 2021-09-27 at 10:08:42 UTC

; 

; external perimeters extrusion width = 0.60mm
; perimeters extrusion width = 0.45mm
; infill extrusion width = 0.45mm
; solid infill extrusion width = 0.45mm
; top infill extrusion width = 0.40mm
; support material extrusion width = 0.35mm
; first layer extrusion width = 0.42mm

M201 X1000 Y1000 Z200 E5000 ; sets maximum accelerations, mm/sec^2
M203 X200 Y200 Z8 E60 ; sets maximum feedrates, mm/sec
M204 P1250 R1250 T1250 ; sets acceleration (P, T) and retract acceleration (R), mm/sec^2
M205 X8.00 Y8.00 Z0.40 E5.00 ; sets the jerk limits, mm/sec
M205 S0 T0 ; sets the minimum extruding and travel feed rate, mm/sec
M107 ; disable fan
;TYPE:Custom
G90 ; use absolute coordinates
M83 ; extruder relative mode
M204 S1250 T1250
M104 S215 ; set extruder temp
M140 S60 ; set bed temp
G28 ; home all
G1 Y0 Z1 F100 ; move print head up
M190 S60 ; wait for bed temp
M109 S215 ; wait for extruder temp
G92 E0
G1 E38 F1000; deretract filament
G92 E0
G1 X60 Z0 E9 ; intro line
G1 X100 E12.5 ; intro line
G92 E0
G21 ; set units to millimeters
G90 ; use absolute coordinates
M83 ; use relative distances for extrusion
; Filament gcode
;LAYER_CHANGE
;Z:0.2
;HEIGHT:0.2
;BEFORE_LAYER_CHANGE
;0.2
G1 E-6.00000 F2400.000 ; retract
G1 Z0.075 F10800.000 ; lift Z
G1 Z0.200 ; move to next layer (0)
;AFTER_LAYER_CHANGE
;0.2
G1 Z0.275 ; lift Z
G1 X70.458 Y69.476 ; move to first brim point
G1 Z0.200 ; restore layer Z
G1 E6.00000 F3000.000 ; unretract
M204 S1250 ; adjust acceleration
;TYPE:Skirt
;WIDTH:0.42
G1 F1800.000
G1 X72.754 Y67.429 E0.09646 ; brim
G1 X75.096 Y66.269 E0.08194 ; brim
G1 X77.628 Y65.724 E0.08120 ; brim
G1 X144.326 Y56.872 E2.10962 ; brim
G1 X146.596 Y56.902 E0.07119 ; brim
G1 X149.360 Y57.723 E0.09040 ; brim
G1 X151.755 Y59.348 E0.09074 ; brim
G1 X153.511 Y61.562 E0.08861 ; brim
G1 X154.540 Y64.229 E0.08961 ; brim
G1 X154.852 Y86.466 E0.69729 ; brim
G1 X149.111 Y107.089 E0.67121 ; brim
G1 X137.910 Y125.324 E0.67101 ; brim
G1 X122.159 Y139.735 E0.66938 ; brim
G1 X103.052 Y149.258 E0.66937 ; brim
G1 X82.072 Y153.158 E0.66907 ; brim
G1 X61.618 Y151.319 E0.64391 ; brim
G1 X59.362 Y150.550 E0.07473 ; brim
G1 X57.436 Y149.169 E0.07433 ; brim
G1 X57.280 Y148.990 E0.00743 ; brim
G1 X55.531 Y146.230 E0.10245 ; brim
G1 X55.085 Y144.244 E0.06382 ; brim
G1 X55.151 Y142.168 E0.06515 ; brim
G1 X68.062 Y74.972 E2.14540 ; brim
G1 X68.815 Y72.142 E0.09182 ; brim
G1 X70.426 Y69.527 E0.09632 ; brim
G1 X70.730 Y69.738 F10800.000 ; move to first brim point
G1 F1800.000
G1 X72.945 Y67.755 E0.09323 ; brim
G1 X75.198 Y66.632 E0.07893 ; brim
G1 X77.685 Y66.096 E0.07974 ; brim
G1 X144.362 Y57.248 E2.10894 ; brim
G1 X146.565 Y57.278 E0.06909 ; brim
G1 X149.174 Y58.052 E0.08531 ; brim
G1 X151.479 Y59.606 E0.08717 ; brim
G1 X153.170 Y61.725 E0.08500 ; brim
G1 X154.176 Y64.333 E0.08765 ; brim
G1 X154.474 Y86.444 E0.69332 ; brim
G1 X148.776 Y106.914 E0.66623 ; brim
G1 X137.636 Y125.064 E0.66772 ; brim
G1 X121.967 Y139.409 E0.66609 ; brim
G1 X102.957 Y148.892 E0.66609 ; brim
G1 X82.080 Y152.780 E0.66582 ; brim
G1 X61.674 Y150.946 E0.64240 ; brim
G1 X59.559 Y150.227 E0.07005 ; brim
G1 X57.703 Y148.902 E0.07150 ; brim
G1 X57.589 Y148.774 E0.00536 ; brim
G1 X55.892 Y146.115 E0.09889 ; brim
G1 X55.459 Y144.185 E0.06202 ; brim
G1 X55.524 Y142.224 E0.06152 ; brim
G1 X68.431 Y75.049 E2.14475 ; brim
G1 X69.151 Y72.315 E0.08865 ; brim
G1 X70.699 Y69.789 E0.09289 ; brim
G1 X71.003 Y70.000 F10800.000 ; move to first brim point
G1 F1800.000
G1 X73.136 Y68.081 E0.08997 ; brim
G1 X75.345 Y66.980 E0.07737 ; brim
G1 X77.741 Y66.469 E0.07682 ; brim
G1 X144.398 Y57.624 E2.10828 ; brim
G1 X146.533 Y57.655 E0.06697 ; brim
G1 X149.037 Y58.405 E0.08196 ; brim
G1 X151.243 Y59.902 E0.08357 ; brim
G1 X152.856 Y61.936 E0.08142 ; brim
G1 X153.812 Y64.436 E0.08392 ; brim
G1 X154.097 Y86.422 E0.68939 ; brim
G1 X148.420 Y106.787 E0.66290 ; brim
G1 X137.362 Y124.804 E0.66281 ; brim
G1 X121.775 Y139.084 E0.66281 ; brim
G1 X102.862 Y148.526 E0.66281 ; brim
G1 X82.088 Y152.402 E0.66258 ; brim
G1 X61.731 Y150.572 E0.64087 ; brim
G1 X59.707 Y149.879 E0.06706 ; brim
G1 X57.967 Y148.632 E0.06712 ; brim
G1 X57.897 Y148.555 E0.00327 ; brim
G1 X56.252 Y145.999 E0.09531 ; brim
G1 X55.836 Y144.173 E0.05872 ; brim
G1 X55.897 Y142.281 E0.05936 ; brim
G1 X68.800 Y75.126 E2.14410 ; brim
G1 X69.487 Y72.487 E0.08550 ; brim
G1 X70.972 Y70.051 E0.08945 ; brim
G1 X71.277 Y70.261 F10800.000 ; move to first brim point
G1 F1800.000
G1 X73.329 Y68.406 E0.08672 ; brim
G1 X75.448 Y67.344 E0.07432 ; brim
G1 X77.798 Y66.842 E0.07537 ; brim
G1 X144.433 Y57.999 E2.10761 ; brim
G1 X146.501 Y58.032 E0.06483 ; brim
G1 X148.900 Y58.757 E0.07859 ; brim
G1 X151.006 Y60.197 E0.07998 ; brim
G1 X152.542 Y62.147 E0.07784 ; brim
G1 X153.448 Y64.539 E0.08020 ; brim
G1 X153.726 Y86.346 E0.68382 ; brim
G1 X148.085 Y106.613 E0.65960 ; brim
G1 X137.088 Y124.544 E0.65953 ; brim
G1 X121.583 Y138.758 E0.65953 ; brim
G1 X102.767 Y148.160 E0.65952 ; brim
G1 X82.096 Y152.024 E0.65933 ; brim
G1 X61.787 Y150.199 E0.63935 ; brim
G1 X59.904 Y149.556 E0.06238 ; brim
G1 X58.226 Y148.358 E0.06467 ; brim
G1 X56.612 Y145.883 E0.09263 ; brim
G1 X56.209 Y144.113 E0.05690 ; brim
G1 X56.270 Y142.338 E0.05570 ; brim
G1 X69.170 Y75.203 E2.14347 ; brim
G1 X69.824 Y72.659 E0.08238 ; brim
G1 X71.246 Y70.312 E0.08601 ; brim
G1 X71.551 Y70.521 F10800.000 ; move to first brim point
G1 F1800.000
G1 X73.521 Y68.732 E0.08344 ; brim
G1 X75.595 Y67.692 E0.07274 ; brim
G1 X77.855 Y67.215 E0.07243 ; brim
G1 X144.469 Y58.375 E2.10695 ; brim
G1 X146.468 Y58.408 E0.06268 ; brim
G1 X148.761 Y59.109 E0.07520 ; brim
G1 X150.768 Y60.490 E0.07637 ; brim
G1 X152.227 Y62.356 E0.07425 ; brim
G1 X153.083 Y64.640 E0.07649 ; brim
G1 X153.356 Y86.271 E0.67828 ; brim
G1 X147.750 Y106.438 E0.65630 ; brim
G1 X136.814 Y124.284 E0.65624 ; brim
G1 X121.391 Y138.433 E0.65624 ; brim
G1 X102.671 Y147.794 E0.65624 ; brim
G1 X82.104 Y151.646 E0.65608 ; brim
G1 X61.844 Y149.825 E0.63781 ; brim
G1 X60.053 Y149.209 E0.05937 ; brim
G1 X58.489 Y148.082 E0.06045 ; brim
G1 X56.972 Y145.765 E0.08685 ; brim
G1 X56.587 Y144.101 E0.05355 ; brim
G1 X56.643 Y142.394 E0.05353 ; brim
G1 X69.539 Y75.279 E2.14283 ; brim
G1 X70.162 Y72.829 E0.07928 ; brim
G1 X71.520 Y70.572 E0.08257 ; brim
G1 X71.826 Y70.780 F10800.000 ; move to first brim point
G1 F1800.000
G1 X73.714 Y69.056 E0.08017 ; brim
G1 X75.697 Y68.056 E0.06963 ; brim
G1 X77.912 Y67.588 E0.07098 ; brim
G1 X144.505 Y58.751 E2.10628 ; brim
G1 X146.434 Y58.785 E0.06051 ; brim
G1 X148.622 Y59.461 E0.07180 ; brim
G1 X150.529 Y60.783 E0.07277 ; brim
G1 X151.911 Y62.564 E0.07067 ; brim
G1 X152.718 Y64.741 E0.07280 ; brim
G1 X152.986 Y86.196 E0.67278 ; brim
G1 X147.414 Y106.264 E0.65300 ; brim
G1 X136.539 Y124.024 E0.65296 ; brim
G1 X121.198 Y138.107 E0.65296 ; brim
G1 X102.576 Y147.429 E0.65296 ; brim
G1 X82.112 Y151.268 E0.65283 ; brim
G1 X61.901 Y149.452 E0.63626 ; brim
G1 X60.204 Y148.862 E0.05633 ; brim
G1 X58.738 Y147.798 E0.05679 ; brim
G1 X57.331 Y145.646 E0.08062 ; brim
G1 X56.965 Y144.087 E0.05020 ; brim
G1 X57.017 Y142.451 E0.05134 ; brim
G1 X69.908 Y75.355 E2.14221 ; brim
G1 X70.500 Y72.998 E0.07621 ; brim
G1 X71.795 Y70.832 E0.07913 ; brim
G1 X72.102 Y71.039 F10800.000 ; move to first brim point
G1 F1800.000
G1 X73.907 Y69.381 E0.07686 ; brim
G1 X75.844 Y68.404 E0.06803 ; brim
G1 X77.968 Y67.961 E0.06801 ; brim
G1 X144.540 Y59.126 E2.10562 ; brim
G1 X146.400 Y59.161 E0.05832 ; brim
G1 X148.481 Y59.812 E0.06837 ; brim
G1 X150.289 Y61.076 E0.06916 ; brim
G1 X151.594 Y62.770 E0.06708 ; brim
G1 X152.353 Y64.840 E0.06911 ; brim
G1 X152.615 Y86.121 E0.66731 ; brim
G1 X147.079 Y106.089 E0.64971 ; brim
G1 X136.265 Y123.764 E0.64967 ; brim
G1 X121.006 Y137.782 E0.64967 ; brim
G1 X102.480 Y147.063 E0.64967 ; brim
G1 X82.120 Y150.890 E0.64957 ; brim
G1 X61.958 Y149.078 E0.63470 ; brim
G1 X60.356 Y148.516 E0.05325 ; brim
G1 X58.989 Y147.514 E0.05313 ; brim
G1 X57.691 Y145.528 E0.07441 ; brim
G1 X57.338 Y144.026 E0.04838 ; brim
G1 X57.390 Y142.508 E0.04762 ; brim
G1 X70.278 Y75.431 E2.14161 ; brim
G1 X70.839 Y73.166 E0.07316 ; brim
G1 X72.071 Y71.091 E0.07568 ; brim
G1 X72.378 Y71.297 F10800.000 ; move to first brim point
G1 F1800.000
G1 X74.102 Y69.705 E0.07357 ; brim
G1 X75.946 Y68.768 E0.06487 ; brim
G1 X78.024 Y68.334 E0.06657 ; brim
G1 X144.575 Y59.502 E2.10495 ; brim
G1 X146.365 Y59.538 E0.05612 ; brim
G1 X148.339 Y60.162 E0.06493 ; brim
G1 X150.047 Y61.367 E0.06554 ; brim
G1 X151.277 Y62.976 E0.06350 ; brim
G1 X151.988 Y64.938 E0.06544 ; brim
G1 X152.245 Y86.046 E0.66188 ; brim
G1 X146.743 Y105.915 E0.64642 ; brim
G1 X135.990 Y123.504 E0.64639 ; brim
G1 X120.813 Y137.457 E0.64639 ; brim
G1 X102.385 Y146.697 E0.64639 ; brim
G1 X82.128 Y150.512 E0.64631 ; brim
G1 X62.016 Y148.705 E0.63313 ; brim
G1 X60.509 Y148.170 E0.05014 ; brim
G1 X59.240 Y147.231 E0.04947 ; brim
G1 X58.050 Y145.408 E0.06829 ; brim
G1 X57.715 Y144.012 E0.04500 ; brim
G1 X57.763 Y142.564 E0.04543 ; brim
G1 X70.647 Y75.507 E2.14100 ; brim
G1 X71.178 Y73.333 E0.07014 ; brim
G1 X72.348 Y71.349 E0.07223 ; brim
G1 X72.655 Y71.554 F10800.000 ; move to first brim point
G1 F1800.000
G1 X74.296 Y70.029 E0.07023 ; brim
G1 X76.094 Y69.115 E0.06324 ; brim
G1 X78.080 Y68.707 E0.06358 ; brim
G1 X144.610 Y59.878 E2.10429 ; brim
G1 X146.329 Y59.914 E0.05390 ; brim
G1 X148.196 Y60.512 E0.06145 ; brim
G1 X149.805 Y61.657 E0.06192 ; brim
G1 X150.959 Y63.180 E0.05991 ; brim
G1 X151.622 Y65.035 E0.06178 ; brim
G1 X151.874 Y85.971 E0.65649 ; brim
G1 X146.408 Y105.741 E0.64312 ; brim
G1 X135.715 Y123.245 E0.64311 ; brim
G1 X120.621 Y137.132 E0.64311 ; brim
G1 X102.289 Y146.332 E0.64311 ; brim
G1 X82.135 Y150.134 E0.64305 ; brim
G1 X62.073 Y148.331 E0.63158 ; brim
G1 X60.710 Y147.850 E0.04531 ; brim
G1 X59.492 Y146.948 E0.04753 ; brim
G1 X58.408 Y145.287 E0.06219 ; brim
G1 X58.093 Y143.998 E0.04161 ; brim
G1 X58.136 Y142.620 E0.04321 ; brim
G1 X71.017 Y75.582 E2.14040 ; brim
G1 X71.517 Y73.499 E0.06716 ; brim
G1 X72.625 Y71.606 E0.06878 ; brim
G1 X72.933 Y71.810 F10800.000 ; move to first brim point
G1 F1800.000
G1 X74.492 Y70.353 E0.06691 ; brim
G1 X76.196 Y69.480 E0.06002 ; brim
G1 X78.137 Y69.079 E0.06213 ; brim
G1 X144.645 Y60.253 E2.10362 ; brim
G1 X146.293 Y60.290 E0.05166 ; brim
G1 X148.051 Y60.861 E0.05796 ; brim
G1 X149.561 Y61.946 E0.05830 ; brim
G1 X150.639 Y63.382 E0.05633 ; brim
G1 X151.256 Y65.131 E0.05814 ; brim
G1 X151.503 Y85.897 E0.65114 ; brim
G1 X146.072 Y105.567 E0.63983 ; brim
G1 X135.440 Y122.985 E0.63982 ; brim
G1 X120.428 Y136.807 E0.63982 ; brim
G1 X102.193 Y145.966 E0.63982 ; brim
G1 X82.143 Y149.756 E0.63978 ; brim
G1 X62.131 Y147.958 E0.63000 ; brim
G1 X60.865 Y147.505 E0.04216 ; brim
G1 X59.745 Y146.667 E0.04387 ; brim
G1 X58.767 Y145.166 E0.05615 ; brim
G1 X58.465 Y143.934 E0.03979 ; brim
G1 X58.509 Y142.678 E0.03941 ; brim
G1 X71.386 Y75.656 E2.13984 ; brim
G1 X71.858 Y73.664 E0.06420 ; brim
G1 X72.903 Y71.862 E0.06532 ; brim
G1 X73.213 Y72.065 F10800.000 ; move to first brim point
G1 F1800.000
G1 X74.688 Y70.676 E0.06354 ; brim
G1 X76.345 Y69.827 E0.05836 ; brim
G1 X78.192 Y69.452 E0.05911 ; brim
G1 X144.680 Y60.629 E2.10296 ; brim
G1 X146.255 Y60.667 E0.04939 ; brim
G1 X147.904 Y61.210 E0.05443 ; brim
G1 X149.316 Y62.233 E0.05467 ; brim
G1 X150.319 Y63.583 E0.05274 ; brim
G1 X150.890 Y65.226 E0.05451 ; brim
G1 X151.133 Y85.822 E0.64583 ; brim
G1 X145.737 Y105.393 E0.63654 ; brim
G1 X135.166 Y122.726 E0.63654 ; brim
G1 X120.235 Y136.482 E0.63654 ; brim
G1 X102.097 Y145.600 E0.63654 ; brim
G1 X82.151 Y149.379 E0.63651 ; brim
G1 X62.189 Y147.585 E0.62840 ; brim
G1 X61.021 Y147.161 E0.03898 ; brim
G1 X59.999 Y146.386 E0.04020 ; brim
G1 X59.125 Y145.044 E0.05022 ; brim
G1 X58.843 Y143.919 E0.03636 ; brim
G1 X58.882 Y142.734 E0.03718 ; brim
G1 X71.756 Y75.731 E2.13926 ; brim
G1 X72.199 Y73.827 E0.06128 ; brim
G1 X73.183 Y72.117 E0.06186 ; brim
G1 X73.493 Y72.319 F10800.000 ; move to first brim point
G1 F1800.000
G1 X74.884 Y70.999 E0.06014 ; brim
G1 X76.493 Y70.175 E0.05667 ; brim
G1 X78.248 Y69.826 E0.05610 ; brim
G1 X144.715 Y61.005 E2.10231 ; brim
G1 X146.217 Y61.043 E0.04711 ; brim
G1 X147.756 Y61.558 E0.05088 ; brim
G1 X149.069 Y62.520 E0.05104 ; brim
G1 X149.998 Y63.783 E0.04916 ; brim
G1 X150.524 Y65.319 E0.05090 ; brim
G1 X150.762 Y85.748 E0.64057 ; brim
G1 X145.401 Y105.220 E0.63326 ; brim
G1 X134.891 Y122.466 E0.63325 ; brim
G1 X120.042 Y136.157 E0.63326 ; brim
G1 X102.000 Y145.235 E0.63326 ; brim
G1 X82.158 Y149.001 E0.63324 ; brim
G1 X62.248 Y147.211 E0.62678 ; brim
G1 X61.179 Y146.817 E0.03574 ; brim
G1 X60.254 Y146.107 E0.03655 ; brim
G1 X59.483 Y144.922 E0.04433 ; brim
G1 X59.216 Y143.854 E0.03453 ; brim
G1 X59.255 Y142.791 E0.03334 ; brim
G1 X72.126 Y75.805 E2.13874 ; brim
G1 X72.540 Y73.989 E0.05839 ; brim
G1 X73.463 Y72.371 E0.05840 ; brim
G1 X73.774 Y72.572 F10800.000 ; move to first brim point
G1 F1800.000
G1 X75.082 Y71.321 E0.05676 ; brim
G1 X76.593 Y70.539 E0.05334 ; brim
G1 X78.303 Y70.199 E0.05468 ; brim
G1 X144.750 Y61.381 E2.10165 ; brim
G1 X146.178 Y61.419 E0.04480 ; brim
G1 X147.606 Y61.905 E0.04729 ; brim
G1 X148.821 Y62.805 E0.04741 ; brim
G1 X149.676 Y63.981 E0.04558 ; brim
G1 X150.157 Y65.410 E0.04730 ; brim
G1 X150.392 Y85.673 E0.63536 ; brim
G1 X145.065 Y105.046 E0.62997 ; brim
G1 X134.615 Y122.207 E0.62997 ; brim
G1 X119.849 Y135.832 E0.62997 ; brim
G1 X101.904 Y144.869 E0.62997 ; brim
G1 X82.166 Y148.623 E0.62996 ; brim
G1 X62.308 Y146.838 E0.62514 ; brim
G1 X61.339 Y146.475 E0.03244 ; brim
G1 X60.511 Y145.830 E0.03291 ; brim
G1 X59.840 Y144.798 E0.03859 ; brim
G1 X59.593 Y143.839 E0.03105 ; brim
G1 X59.628 Y142.848 E0.03109 ; brim
G1 X72.496 Y75.878 E2.13819 ; brim
G1 X72.883 Y74.150 E0.05555 ; brim
G1 X73.744 Y72.624 E0.05493 ; brim
G1 X74.056 Y72.823 F10800.000 ; move to first brim point
G1 F1800.000
G1 X75.280 Y71.643 E0.05332 ; brim
G1 X76.742 Y70.887 E0.05161 ; brim
G1 X78.358 Y70.572 E0.05163 ; brim
G1 X144.784 Y61.757 E2.10100 ; brim
G1 X146.138 Y61.795 E0.04246 ; brim
G1 X147.454 Y62.251 E0.04367 ; brim
G1 X148.571 Y63.089 E0.04377 ; brim
G1 X149.352 Y64.176 E0.04199 ; brim
G1 X149.790 Y65.501 E0.04373 ; brim
G1 X150.021 Y85.599 E0.63021 ; brim
G1 X144.729 Y104.873 E0.62669 ; brim
G1 X134.340 Y121.948 E0.62669 ; brim
G1 X119.655 Y135.507 E0.62669 ; brim
G1 X101.808 Y144.504 E0.62669 ; brim
G1 X82.174 Y148.245 E0.62669 ; brim
G1 X62.368 Y146.465 E0.62348 ; brim
G1 X61.502 Y146.134 E0.02909 ; brim
G1 X60.770 Y145.554 E0.02928 ; brim
G1 X60.197 Y144.672 E0.03298 ; brim
G1 X59.971 Y143.823 E0.02754 ; brim
G1 X60.001 Y142.904 E0.02882 ; brim
G1 X72.866 Y75.951 E2.13766 ; brim
G1 X73.226 Y74.309 E0.05273 ; brim
G1 X74.027 Y72.876 E0.05147 ; brim
G1 X74.339 Y73.074 F10800.000 ; move to first brim point
G1 F1800.000
G1 X75.480 Y71.964 E0.04990 ; brim
G1 X76.842 Y71.251 E0.04819 ; brim
G1 X78.414 Y70.945 E0.05022 ; brim
G1 X144.819 Y62.132 E2.10034 ; brim
G1 X146.098 Y62.171 E0.04012 ; brim
G1 X147.253 Y62.571 E0.03834 ; brim
G1 X148.282 Y63.333 E0.04014 ; brim
G1 X149.029 Y64.372 E0.04012 ; brim
G1 X149.422 Y65.589 E0.04010 ; brim
G1 X149.650 Y85.524 E0.62511 ; brim
G1 X144.393 Y104.699 E0.62340 ; brim
G1 X134.065 Y121.689 E0.62340 ; brim
G1 X119.462 Y135.182 E0.62340 ; brim
G1 X101.711 Y144.138 E0.62340 ; brim
G1 X82.181 Y147.867 E0.62340 ; brim
G1 X62.429 Y146.092 E0.62180 ; brim
G1 X61.667 Y145.794 E0.02565 ; brim
G1 X61.030 Y145.280 E0.02567 ; brim
G1 X60.553 Y144.546 E0.02743 ; brim
G1 X60.343 Y143.754 E0.02569 ; brim
G1 X60.374 Y142.962 E0.02485 ; brim
G1 X73.236 Y76.024 E2.13719 ; brim
G1 X73.569 Y74.466 E0.04997 ; brim
G1 X74.310 Y73.126 E0.04800 ; brim
G1 X74.802 Y73.457 F10800.000 ; move to first perimeter point
;TYPE:External perimeter
G1 F1800.000
G1 X75.812 Y72.466 E0.04436 ; perimeter
G1 X77.065 Y71.810 E0.04436 ; perimeter
G1 X78.503 Y71.537 E0.04590 ; perimeter
G1 X144.837 Y62.731 E2.09810 ; perimeter
G1 X145.963 Y62.758 E0.03530 ; perimeter
G1 X146.996 Y63.116 E0.03429 ; perimeter
G1 X147.870 Y63.772 E0.03429 ; perimeter
